image/twitter.svg

<svg width="45" height="45" viewBox="0 0 45 45" fill="none" xmlns="http://www.w3.org/2000/svg">
<path d="M5 0H40C41.3261 0 42.5979 0.526784 43.5355 1.46447C44.4732 2.40215 45 3.67392 45 5V40C45 41.3261 44.4732 42.5979 43.5355 43.5355C42.5979 44.4732 41.3261 45 40 45H5C3.67392 45 2.40215 44.4732 1.46447 43.5355C0.526784 42.5979 0 41.3261 0 40V5C0 3.67392 0.526784 2.40215 1.46447 1.46447C2.40215 0.526784 3.67392 0 5 0ZM36.775 15.825C38.0768 14.8796 39.1738 13.6805 40 12.3C38.8672 12.8444 37.6497 13.191 36.4 13.325C37.7066 12.4354 38.6892 11.1458 39.2 9.65C37.8949 10.4053 36.4768 10.9455 35 11.25C33.9736 10.1521 32.6125 9.42517 31.1292 9.18279C29.646 8.94041 28.1242 9.19625 26.8018 9.91032C25.4793 10.6244 24.4307 11.7565 23.8197 13.1296C23.2088 14.5027 23.07 16.0396 23.425 17.5C20.7563 17.3467 18.1494 16.6356 15.7725 15.4127C13.3955 14.1898 11.3013 12.4821 9.625 10.4C8.85862 11.888 8.63655 13.597 8.99722 15.2314C9.35788 16.8659 10.2786 18.3227 11.6 19.35C10.6038 19.2716 9.63404 18.9909 8.75 18.525C8.71088 20.0702 9.20723 21.5814 10.1549 22.8025C11.1027 24.0236 12.4434 24.8794 13.95 25.225C13.007 25.3878 12.043 25.3878 11.1 25.225C11.4966 26.5643 12.3034 27.7455 13.4067 28.6021C14.51 29.4587 15.8542 29.9476 17.25 30C14.4752 32.1346 10.9775 33.1032 7.5 32.7C10.6368 34.8624 14.3937 35.9421 18.2 35.775C29.225 35.275 36.6 27.5 36.775 15.825Z" fill="#BB2A2F"/>
</svg>

<svg xmlns="http://www.w3.org/2000/svg" width="45" height="45" fill="none"><path fill="#BB2A2F" d="M5 0h35a5 5 0 0 1 5 5v35a5 5 0 0 1-5 5H5a5 5 0 0 1-5-5V5a5 5 0 0 1 5-5Zm31.775 15.825A11.925 11.925 0 0 0 40 12.3c-1.133.544-2.35.891-3.6 1.025a7.3 7.3 0 0 0 2.8-3.675 14.049 14.049 0 0 1-4.2 1.6 6.8 6.8 0 0 0-11.575 6.25 19.124 19.124 0 0 1-13.8-7.1 7.175 7.175 0 0 0 1.975 8.95 7.35 7.35 0 0 1-2.85-.825 6.7 6.7 0 0 0 5.2 6.7 8.376 8.376 0 0 1-2.85 0A6.675 6.675 0 0 0 17.25 30a13.45 13.45 0 0 1-9.75 2.7 17.5 17.5 0 0 0 10.7 3.075c11.025-.5 18.4-8.275 18.575-19.95Z"/></svg>
